public/images/flags/MD.svg

<svg width="21" height="15" viewBox="0 0 21 15" fill="none" xmlns="http://www.w3.org/2000/svg">
<path d="M2.006 1.4314e-06C1.47591 -0.00159307 0.966873 0.207319 0.590732 0.580835C0.214591 0.954351 0.00211797 1.46191 6.07585e-10 1.992V13.008C-6.48928e-06 13.2708 0.0519781 13.531 0.15296 13.7736C0.253942 14.0162 0.401925 14.2364 0.588385 14.4215C0.774844 14.6067 0.996095 14.7531 1.23939 14.8524C1.48269 14.9517 1.74323 15.0018 2.006 15H7V1.4314e-06H2.006Z" fill="#43458B"/>
<path d="M14 3.42551e-06V15H18.994C19.5241 15.0016 20.0331 14.7927 20.4093 14.4192C20.7854 14.0457 20.9979 13.5381 21 13.008V1.992C21 1.72923 20.948 1.46905 20.847 1.22645C20.7461 0.983853 20.5981 0.763632 20.4116 0.578474C20.2252 0.393315 20.0039 0.246878 19.7606 0.147598C19.5173 0.0483177 19.2568 -0.00184339 18.994 3.42551e-06H14Z" fill="#E25950"/>
<path d="M7 0H14V15H7V0Z" fill="#FCD669"/>
<path d="M8 8V8.5C8 9.16304 8.26339 9.79893 8.73223 10.2678C9.20107 10.7366 9.83696 11 10.5 11V8H8ZM10.5 5H13V8H10.5V5Z" fill="#E25950"/>
<path d="M8 5H10.5V8H8V5ZM10.5 11C11.163 11 11.7989 10.7366 12.2678 10.2678C12.7366 9.79893 13 9.16304 13 8.5V8H10.5V11Z" fill="#F6F9FC"/>
</svg>

<svg width="21" height="15" fill="none" xmlns="http://www.w3.org/2000/svg"><path d="M2.006 0A2 2 0 0 0 0 1.992v11.016A1.992 1.992 0 0 0 2.006 15H7V0H2.006z" fill="#43458B"/><path d="M14 0v15h4.994A2 2 0 0 0 21 13.008V1.992A1.992 1.992 0 0 0 18.994 0H14z" fill="#E25950"/><path d="M7 0h7v15H7V0z" fill="#FCD669"/><path d="M8 8v.5a2.5 2.5 0 0 0 2.5 2.5V8H8zm2.5-3H13v3h-2.5V5z" fill="#E25950"/><path d="M8 5h2.5v3H8V5zm2.5 6A2.5 2.5 0 0 0 13 8.5V8h-2.5v3z" fill="#F6F9FC"/></svg>
